X:91
T:Dyma Gariad - Here is Love
M:3/4
L:1/4
Q:120
C:Trad.
R:Waltz
K:D
F>G A/2B/2 | A F D | A2 A | G F2 | B2
B | A>F G/2A/2 | G F E | D3 :|| A2
F | A F/2G/2 A | B2 A | G F2 | A2 F
| A F/2G/2 A | B2 A/2G/2 | F3 | F>G A/2B/2
| A F D | A2 A | G F2 | B2 B | A>
F G/2A/2 | G F E | D3 ||
